X: 2109
T: O'ER THE MUIR AMANG THE HEATHER
C:
Q: "Reel."
R: Reel.
%R: reel
B: James Kerr "Merry Melodies" v.2 p.14 #109
Z: 2016 John Chambers <jc:trillian.mit.edu>
M: C
L: 1/8
K: G
|:\
uDGGA GAGD | EAAB cBAG |\
Bdde degd | (e/f/g) (dB) ABAG ::\
Ggga gagd | eaab abag |\
bage degd | egdB ABAG :|
